X:1
T:Title
%%score { ( 1 3 5 ) | ( 2 4 ) }
L:1/8
M:4/4
K:E
V:1 treble nm="Grand Piano"
V:3 treble 
V:5 treble 
V:2 bass 
V:4 bass 
V:1
 z4 z2[Q:1/4=100] B2 | B2 G2 [A,DF]2 [B,DG]2 | [A,DF]4 [G,E]2 [G,C^E]2 | [F,CF]2 G2 A2 [=Gc]2 | %4
[M:3/4] F2 z2 z2 |[M:1/4] [B,EG]2 |[M:4/4] [FG]4 z4 | [Ec]4 [Ge]2 [Ge]2 | %8
 [EGc]3 [EGc] [D=GB]2 [CG^A]2 |[M:3/4] [C=G^A]4 [B,^G]2 |[M:1/4] [DAB]2 | %11
[M:4/4] [EGB]2 [B,EG]2 [A,DF]2 [B,DG]2 | [A,DF]4 [G,E]2 [G,C^E]2 | [F,CF]2 G2 A2 [=Gc]2 | %14
[M:3/4] F2 z2 z2 |[M:1/4] [^B,FG]2 | %16
[M:4/4] [B,^EG]3 [B,EG] [B,EA]2 [B,EG]2[Q:1/4=99][Q:1/4=97][Q:1/4=96][Q:1/4=94] | %17
 [Fc]4 [A,CF]2 [CEA]2[Q:1/4=93][Q:1/4=91][Q:1/4=90][Q:1/4=88][Q:1/4=87] | %18
 [CDA]2 [B,DG]2 [A,DF]2 [A,DG]2[Q:1/4=85][Q:1/4=84][Q:1/4=82][Q:1/4=81] | %19
[M:3/4] [G,E]6[Q:1/4=79][Q:1/4=78][Q:1/4=76] |] %20
V:2
 z4 z2 [E,G,E]2 | [E,G,E]2 [E,B,E]2 B,,2 B,,2 | C,4 C,2 B,,2 | A,,2 [C,^E,C]2 [F,C]2 [=E,^A,]2 | %4
[M:3/4] D,2 z A E,2 |[M:1/4] E,2 |[M:4/4] D,2 z F D,2 [D,G,]2 | [C,G,]4 [C,C]2 [C,C]2 | %8
 ^A,,3 A,, D,2 D,2 |[M:3/4] D,4 G,2 |[M:1/4] F,2 |[M:4/4] E,2 E,2 B,,2 B,,2 | C,4 C,2 B,,2 | %13
 A,,2 [C,E,C]2 [F,C]2 [E,^A,]2 |[M:3/4] D,2 z A E,2 |[M:1/4] G,2 |[M:4/4] C,3 C, C,2 C,2 | %17
 [F,A,]4 F,2 F,2 | B,,2 B,,2 B,,2 B,,2 |[M:3/4] E,6 |] %20
V:3
 x8 | x8 | x8 | x8 |[M:3/4] [B,B]2- [B,-DB]2 [B,EG]2 |[M:1/4] x2 | %6
[M:4/4] ^B,2 z G [B,F^A]2 [F^B]2 | x8 | x8 |[M:3/4] x6 |[M:1/4] x2 |[M:4/4] x8 | x8 | x8 | %14
[M:3/4] [B,B]2- [B,-DB]2 [B,EG]2 |[M:1/4] x2 |[M:4/4] x8 | x8 | x8 |[M:3/4] x6 |] %20
V:4
 x8 | x8 | x8 | x8 |[M:3/4] z2 B,,2 z2 |[M:1/4] x2 |[M:4/4] z2 D,2 z4 | x8 | x8 |[M:3/4] x6 | %10
[M:1/4] x2 |[M:4/4] x8 | x8 | x8 |[M:3/4] z2 B,,2 z2 |[M:1/4] x2 |[M:4/4] x8 | x8 | x8 | %19
[M:3/4] x6 |] %20
V:5
 x8 | x8 | x8 | x8 |[M:3/4] x6 |[M:1/4] x2 |[M:4/4] z2 ^B,2 z4 | x8 | x8 |[M:3/4] x6 |[M:1/4] x2 | %11
[M:4/4] x8 | x8 | x8 |[M:3/4] x6 |[M:1/4] x2 |[M:4/4] x8 | x8 | x8 |[M:3/4] x6 |] %20

